!!!!SEGMENT: pl-kk--kk-i-480--003_wiltberger-august--missa-sanctus.krn
!!!cenid: 18xx:1437
!!!COM: Wiltberger, August
!!!COM-rismid: pe327522
!!!CDT: 1850/04/17-1928/12/02
!!!CNT: German
!!!OPR: Missa
!!!OTL: Sanctus
!!!OMV: 003
!!!PDT:
!!!AGN: Sacred; Mass
!!!SMS-siglum: PL-Kk
!!!SMS-shelfmark: Kk.I.480
!!!SMS-shelfwork: 001-003 M
!!!SMS-variant: Tenor I str. 8, Tenor II str.13, Bas I str. 18, Bas II str. 23
!!!SMS-altvar: Partytura str. 3
!!!NIFC-rismid: 1001140257
!!!URL-scan: http://repozytorium.nifc.pl/skany/pl-kk-nut--i-480
!!!ONB-nifc: UWAGA: na podstawie głosów. Proszę uzupełnić pola !!!SMS dot. partytury i głosów. Uwaga: części mszy: 1. Kyrie, 2. Gloria, 3. Sanctus, 4. Benedictus, 5. Agnus
**kern	**text	**dynam	**kern	**text	**dynam	**kern	**text	**dynam	**kern	**text	**dynam
*part4	*part4	*part4	*part3	*part3	*part3	*part2	*part2	*part2	*part1	*part1	*part1
*staff4	*staff4	*	*staff3	*staff3	*	*staff2	*staff2	*	*staff1	*staff1	*
*Iempty	*	*	*Iempty	*	*	*Itenor	*	*	*Itenor	*	*
*I"Bas II	*	*	*I"Bas I	*	*	*I"Tenor II	*	*	*I"Tenor I	*	*
*I'B 2	*	*	*I'B 1	*	*	*I'T 2	*	*	*I'T 1	*	*
*group1	*	*	*group1	*	*	*group1	*	*	*group1	*	*
*clefF4	*	*	*clefF4	*	*	*clefGv2	*	*	*clefGv2	*	*
*k[b-]	*	*	*k[b-]	*	*	*k[b-]	*	*	*k[b-]	*	*
*F:	*	*	*F:	*	*	*F:	*	*	*F:	*	*
*M4/4	*	*	*M4/4	*	*	*M4/4	*	*	*M4/4	*	*
*met(c)	*	*	*met(c)	*	*	*met(c)	*	*	*met(c)	*	*
=1	=1	=1	=1	=1	=1	=1	=1	=1	=1	=1	=1
!	!	!	!	!	!LO:DY:a	!LO:TX:t=P:problem:partia zapisana bez przenośnika oktawowego	!	!LO:DY:a	!LO:TX:t=P:problem:partia zapisana bez przenośnika oktawowego	!	!LO:DY:a
(4F\	Sanc-	.	4F\	Sanc-	p	4F/	San-	p	4F/	San-	p
2G\	.	.	2G\	.	.	2G/	.	.	2G/	.	.
4F\	.	.	4F\	.	.	4F/	.	.	4F/	.	.
=2	=2	=2	=2	=2	=2	=2	=2	=2	=2	=2	=2
4E\	.	.	4G\	.	.	4G/	.	.	4G/	.	.
4D\	.	.	4F\	.	.	2F/	.	.	4A/	.	.
4BB-/	.	.	4D\	.	.	.	.	.	2B-\	.	.
4GG/)	.	.	4C/	.	.	4E/	.	.	.	.	.
=3	=3	=3	=3	=3	=3	=3	=3	=3	=3	=3	=3
!	!	!	!	!	!	!	!	!LO:DY:a	!	!	!
4FF/	-tus	.	4C,/	-tus	.	4F,/	ctus	<	4A,/	ctus	.
!	!	!	!	!	!LO:DY:a	!	!	!	!	!	!LO:DY:a
4r	.	.	(4BB-/	Sanc	mf	4D/	San-	.	(4B-\	San-	mf
2r	.	.	2D\	.	.	2F/	.	[[	4A/	.	.
.	.	.	.	.	.	.	.	.	4B-\	.	.
=4	=4	=4	=4	=4	=4	=4	=4	=4	=4	=4	=4
!	!	!	!	!	!	!	!	!LO:DY:a	!	!	!
4r	.	.	4E\	.	.	4G/	.	>	2c\	.	.
(<4FF/	San-	.	4F\	.	.	4A/	.	.	.	.	.
4BB-/	.	.	2F\)	.	.	2B-\	.	]]	2d\)	.	.
4D\)	.	.	.	.	.	.	.	.	.	.	.
=5	=5	=5	=5	=5	=5	=5	=5	=5	=5	=5	=5
!	!	!LO:DY:a	!	!	!LO:DY:a	!	!	!LO:DY:a	!	!	!
4F,\	-ctus,	<	4F\	-tus,	<	4A,/	-ctus,	<	4c\	-ctus,	.
(4F\	San-	.	4F\	Sanc-	.	4A/	San-	.	2c\	San-	.
4E\	.	.	4E\	.	.	4G/	.	.	.	.	.
4D\	.	[[	4F\	.	x	4Bn\	.	x	4d\	.	.
!!LO:LB:g=original
=6	=6	=6	=6	=6	=6	=6	=6	=6	=6	=6	=6
4C/	.	.	4G\	.	.	2.c\	.	.	4e\	.	.
4AA/	.	.	4F\	.	.	.	.	.	4f\	.	.
2GG/)	.	.	2G\	.	.	.	.	.	2d\	.	.
.	.	.	.	.	.	4Bn\	.	.	.	.	.
=7	=7	=7	=7	=7	=7	=7	=7	=7	=7	=7	=7
4C,/	-ctus	.	4E,\	-tus	.	4G,/	-ctus	.	4c,\	-ctus,	.
!	!	!LO:DY:a	!	!	!LO:DY:a	!	!	!	!	!	!LO:DY:a
4.AA/	Do-	f	4.A\	Do-	f	4.c\	Do-	.	4.e\	Do-	f
8AA/	-mi-	.	8A\	-mi-	.	8c\	-mi-	.	8e\	-mi-	.
4AA/	-nus	.	4A\	-nus	.	4c\	-nus	.	4e\	-nus	.
=8	=8	=8	=8	=8	=8	=8	=8	=8	=8	=8	=8
2BB-/	De-	.	2F\	De-	.	2B-\	De-	.	2d\	De-	.
2D\	-us	.	2F\	-us	.	2A/	-us	.	2A/	-us	.
=9	=9	=9	=9	=9	=9	=9	=9	=9	=9	=9	=9
!	!	!LO:HP:b	!	!	!LO:DY:a	!	!	!LO:DY:a	!	!	!
(<8C/L	Sa-	<	8E\L	Sa-	<	1c	Sa-	<[	[2c\	Sa-	.
8D/	.	.	8F\	.	.	.	.	.	.	.	.
8E/	.	.	8G\	.	.	.	.	.	.	.	.
8F/J	.	.	8A\J	.	.	.	.	.	.	.	.
4.G\	.	.	4.B-\	.	.	.	.	.	8c\L]	.	.
.	.	.	.	.	.	.	.	.	8d\	.	.
.	.	.	.	.	.	.	.	.	8e\	.	.
8F\	.	[[	8A\	.	[[	.	.	.	8f\J	.	.
=10	=10	=10	=10	=10	=10	=10	=10	=10	=10	=10	=10
2BB-/)	.	.	4.B-\	.	.	2d\	.	.	4g\	.	.
.	.	.	.	.	.	.	.	.	2f\	.	.
.	.	.	8A\	.	.	.	.	.	.	.	.
2C/	-ba-	.	2G\	-ba-	.	2c\	-ba-	.	.	.	.
.	.	.	.	.	.	.	.	.	4e\	-ba-	.
=11	=11	=11	=11	=11	=11	=11	=11	=11	=11	=11	=11
1F	-oth.	.	1A	-oth.	.	1c	-oth	.	1f	-oth	.
!LO:LB:g=original	!	!	!LO:PB:g=original	!	!	!LO:LB:g=original	!	!	!LO:LB:g=original	!	!
=12||	=12||	=12||	=12||	=12||	=12||	=12||	=12||	=12||	=12||	=12||	=12||
*M3/4	*	*	*M3/4	*	*	*M3/4	*	*	*M3/4	*	*
!LO:TX:a:t=1.	!	!	!LO:TX:a:t=1	!	!	!	!	!	!	!	!
2.r	.	.	2.r	.	.	4A/	Ple-	.	4f\	Ple-	.
.	.	.	.	.	.	4c\	-ni	.	4e\	-ni	.
.	.	.	.	.	.	4B-\	sunt	.	4d\	sunt	.
=13	=13	=13	=13	=13	=13	=13	=13	=13	=13	=13	=13
4A\	ple-	.	4A\	ple-	.	2.A/	coe-	.	2.c\	coe-	.
4G\	-ni	.	4G\	-ni	.	.	.	.	.	.	.
4F\	sunt	.	4F\	sunt	.	.	.	.	.	.	.
=14	=14	=14	=14	=14	=14	=14	=14	=14	=14	=14	=14
4E\	coe-	.	4E\	coe-	.	2G,/	-li	.	2c,\	-li	.
4E\	-li	.	4E\	-li	.	.	.	.	.	.	.
4D\	et	.	4F\	et	.	4Bn\	et	.	4d\	et	.
=15	=15	=15	=15	=15	=15	=15	=15	=15	=15	=15	=15
2C/	ter-	.	2G\	ter-	.	2c\	ter-	.	2e\	ter-	.
4C/	-ra	.	4G\	-ra	.	4c\	-ra	.	4e\	-ra	.
=16	=16	=16	=16	=16	=16	=16	=16	=16	=16	=16	=16
4.AA/	glo-	.	4.A\	glo-	.	4.c\	glo-	.	4.e\	glo-	.
8AA/	-ri-	.	8A\	-ri-	.	8c\	-ri-	.	8e\	-ri-	.
4AA/	-a	.	4A\	-a	.	4c\	-a	.	4e\	-a	.
!LO:PB:g=original	!	!	!	!	!	!LO:LB:g=original	!	!	!	!	!
=17	=17	=17	=17	=17	=17	=17	=17	=17	=17	=17	=17
2BB-/	tu-	.	2F\	tu-	.	2B-\	tu-	.	2d\	tu-	.
4BB-/	-a,	.	4F\	-a	.	4B-\	-a	.	4d\	-a,	.
!	!	!	!LO:LB:g=original	!	!	!	!	!	!	!	!
=18	=18	=18	=18	=18	=18	=18	=18	=18	=18	=18	=18
4.F\	glo-	.	4.F\	glo-	.	4.A/	glo-	.	4.c\	glo-	.
8F\	-ri-	.	8F\	-ri-	.	8A/	-ri-	.	8c\	-ri-	.
4E\	-a	.	4G\	-a	.	(8G/L	-a	.	4c\	-a	.
.	.	.	.	.	.	8c/J)	.	.	.	.	.
=19	=19	=19	=19	=19	=19	=19	=19	=19	=19	=19	=19
2.G\	tu-	.	2.G\	tu-	.	(4c\	tu-	.	2.d\	tu-	.
.	.	.	.	.	.	8Bn/L	.	.	.	.	.
.	.	.	.	.	.	8A/J	.	.	.	.	.
.	.	.	.	.	.	4B\)	.	.	.	.	.
=20	=20	=20	=20	=20	=20	=20	=20	=20	=20	=20	=20
2.C/	-a	.	2.E\	-a	.	2.G/	-a	.	2.c\	-a	.
!	!	!	!	!	!	!	!	!	!LO:LB:g=original	!	!
=21	=21	=21	=21	=21	=21	=21	=21	=21	=21	=21	=21
!	!	!LO:DY:a	!	!	!LO:DY:a	!	!	!	!	!	!LO:DY:a
4c\	Ho-	f	4c\	Ho-	f	4c\	Ho-	.	4c\	Ho-	f
4c\	-san-	.	4c\	-san-	.	4c\	-san-	.	4c\	-san-	.
4c\	-na	.	4c\	-na	.	4c\	-na	.	4c\	-na	.
=22	=22	=22	=22	=22	=22	=22	=22	=22	=22	=22	=22
2A\	in	.	2A\	in	.	2c\	in	.	2e\	in	.
4A\	ex-	.	4A\	ex-	.	4c\	ex-	.	4e\	ex-	.
!	!	!	!	!	!	!LO:LB:g=original	!	!	!	!	!
=23	=23	=23	=23	=23	=23	=23	=23	=23	=23	=23	=23
2F\	-coel-	.	2A\	-cel-	.	2c\	-cel-	.	2f\	-cel-	.
4C/	-sis,	.	4G\	-sis,	.	4c\	-sis	.	4e\	-sis,	.
!LO:LB:g=original	!	!	!LO:LB:g=original	!	!	!	!	!	!	!	!
=24	=24	=24	=24	=24	=24	=24	=24	=24	=24	=24	=24
4C/	ho-	.	4E\	ho-	.	4G/	Ho-	.	4c\	Ho-	.
4C/	-san-	.	4E\	-san-	.	4G/	-san-	.	4c\	-san-	.
4C/	-na	.	4E\	-na	.	4A/	-na	.	4c\	-na	.
=25	=25	=25	=25	=25	=25	=25	=25	=25	=25	=25	=25
(4BB-/	in	.	2F\	in	.	(4B-\	in	.	2d\	in	.
4D/)	.	.	.	.	.	4A/)	.	.	.	.	.
4D/	ex-	.	4F\	ex-	.	4B-\	ex-	.	4f\	ex-	.
=26	=26	=26	=26	=26	=26	=26	=26	=26	=26	=26	=26
!	!	!	!LO:TX:a:t=riten.	!	!	!	!	!	!	!	!
2.C/	-coel-	.	2.G\	-cel-	.	2.c\	-cel-	.	(2f\	-cel-	.
.	.	.	.	.	.	.	.	.	4f\)	.	.
=27	=27	=27	=27	=27	=27	=27	=27	=27	=27	=27	=27
2.F\	-sis.	.	2.A\	-sis	.	2.c\	-sis	.	2.f\	-sis.	.
==	==	==	==	==	==	==	==	==	==	==	==
*-	*-	*-	*-	*-	*-	*-	*-	*-	*-	*-	*-
!!!system-decoration: [(g1)]
!!!RDF**kern: >= above
!!!RDF**kern: <= below
!!!ENC:Anna Matuszewska
!!!END:2021-01-31
!!!ENC: Tomasz Grochalski
!!!END: 2021-01-23
